X:3
T:Dancing Bear, The (R-116; Bob McQuillen \251 2/22/1978)
I: Dancing Bear, The	R-116	Em	reel
M: C|
R: reel
K: Em
"Em"EFGF EFGF| EFGA G2E2| "A"EFGF EFGF| EFGA G2E2|
"C"EFGF EFGF| EFGA B2e2| "B7"B2Bc BAGF| "Em"G2E2 E4 :|
|:"Em"e2ef gfef| gfe2 e4| "A"e2ef gfef| gfe2 e4|
"C"e2ef gfef| gfe2 e2dc| "B7"BABc BcBA| "Em"GFE2 E4 :|
% %begintext ragged
%% For the E half-notes in the B part, fiddles do a slide up to the harmonic E.  Do this when Debby so signals.
% %endtext ragged
% %textfont Times-Roman 6.0
% %text 4/18/11 

#include "LeftHeader.h"
% %text Set 107 NEFFA 2011 Old-Time
%A/D/G Little Dutch Girl/Holloway/Walnut Gap
$SmallRMargin
$SmallLMargin
% %scale .9
